X: 38
T:The Barrowburn Reel
M:C|
R:reel
Q:1/2=120
C: Addie Harper
L:1/8
K: D
|:A2| "D"D2DE FAAd | "G"B2BA BddB | "D"A2AB "Bm"d2de | "Em"fedB "A7"AFEF |
  "D"D2DE FAAd | "G"B2BA Bdde | "D"f2af "A7"e2fe | "A7"dBAB "D"d2 :|
|: cd \
| "A7"e2ef ecBA | "D"f2fg fdBA | "Em"g2ga gecA | "F#m"a2ag f2ef |
 "G"g2ga gecA | "D"a2ag f2ef | "G"g2ag "D"f2ed | "A7"dBAB "D"d2 :|
%%newpage
